usr/share/icons/biglinux-icons-material-dark/22/actions/hexagon-shape.svg

<svg xmlns="http://www.w3.org/2000/svg" viewBox="0 0 22 22">
  <defs id="defs3051">
    <style type="text/css" id="current-color-scheme">
      .ColorScheme-Text {
        color:#dedede;
      }
      </style>
  </defs>
 <path 
     style="fill:currentColor;fill-opacity:1;stroke:none" 
	d="M 11 3 L 3 7 L 3 15 L 11 19 L 19 15 L 19 7 L 11 3 z M 11 4.1171875 L 18 7.6171875 L 18 14.382812 L 11 17.882812 L 4 14.382812 L 4 7.6171875 L 11 4.1171875 z "
	 class="ColorScheme-Text"
     />
</svg>

<svg xmlns="http://www.w3.org/2000/svg" viewBox="0 0 22 22">
<defs id="defs3051">
<style id="current-color-scheme" type="text/css">
.ColorScheme-Text{color:#dedede}
</style>
</defs>
<path d="M11 3 3 7v8l8 4 8-4V7zm0 1.117 7 3.5v6.766l-7 3.5-7-3.5V7.617z" class="ColorScheme-Text" style="fill:currentColor;fill-opacity:1;stroke:none"/>
</svg>
